img/icon/money.svg

<svg xmlns="http://www.w3.org/2000/svg" preserveAspectRatio="xMidYMid" width="32" height="32" viewBox="0 0 32 32"><defs><style>.cls-1{fill:#fff;fill-rule:evenodd}</style></defs><path d="M21.909 32a10.097 10.097 0 0 1-9.399-6.347 9.847 9.847 0 0 1-.692-3.64 9.822 9.822 0 0 1 .312-2.477 9.934 9.934 0 0 1 1.455-3.169 10.098 10.098 0 0 1 8.136-4.338c.06-.004.124-.004.188-.004.107 0 .211.004.315.007 5.429.166 9.779 4.571 9.776 9.981C32 27.528 27.482 32 21.909 32zm3.658-8.817a2.852 2.852 0 0 0-.645-.984 3.504 3.504 0 0 0-1.072-.698c-.41-.18-.88-.273-1.333-.363-.45-.09-.907-.183-1.31-.356a2.008 2.008 0 0 1-.766-.545c-.235-.282-.353-.638-.353-1.057a1.597 1.597 0 0 1 .42-1.104c.185-.203.427-.359.702-.465a2.15 2.15 0 0 1 .302-.09c.158-.033.323-.053.491-.053.554 0 1.055.203 1.374.555.141.156.255.359.339.605.101.299.41.485.729.439l.353-.053a.659.659 0 0 0 .53-.871 2.98 2.98 0 0 0-.927-1.324c-.403-.329-.937-.561-1.538-.678v-.548a.665.665 0 0 0-.649-.659h-.383a.667.667 0 0 0-.668.659v.538c-.286.053-.558.13-.806.233-.319.13-.602.299-.837.502a3.035 3.035 0 0 0-.809 1.09 3.107 3.107 0 0 0-.185.589 3.841 3.841 0 0 0-.067.542c0 .063-.004.126-.004.193 0 .558.125 1.064.367 1.502.245.443.598.795 1.051 1.044.44.243.88.403 1.337.532.275.077.554.14.847.207.628.139 1.323.352 1.73.844.221.269.332.635.332 1.084 0 .532-.161.984-.48 1.343a2.017 2.017 0 0 1-1.216.638 2.342 2.342 0 0 1-.343.027c-.675 0-1.307-.289-1.69-.775-.171-.216-.309-.522-.409-.917a.664.664 0 0 0-.545-.489.597.597 0 0 0-.215 0l-.359.063a.67.67 0 0 0-.467.326.635.635 0 0 0-.071.459c.094.432.249.818.464 1.15.322.499.709.868 1.152 1.094.376.189.796.329 1.233.412v.416c0 .365.299.661.669.661h.362c.37 0 .669-.296.669-.661v-.399c.793-.14 1.485-.489 1.992-1.018.618-.645.93-1.456.927-2.417 0-.435-.077-.847-.225-1.223zM10.608 12.451c-5.405 0-9.866-1.187-10.524-2.72A.997.997 0 0 1 0 9.339V4.947c.081.063.165.126.255.19.625.435 1.488.814 2.567 1.13 2.092.615 4.857.954 7.786.954 2.93 0 5.694-.339 7.787-.954 1.078-.319 1.942-.698 2.566-1.13.091-.06.175-.123.256-.19V9.339c0 .133-.031.263-.084.392-.659 1.533-5.12 2.72-10.525 2.72zm0-6.227C4.75 6.224 0 4.831 0 3.112c0-.17.047-.336.138-.499.094-.173.235-.339.42-.499C1.972.884 5.939 0 10.608 0c4.67 0 8.633.884 10.051 2.114.185.16.326.326.42.499.091.163.138.329.138.499 0 1.719-4.75 3.112-10.609 3.112zm-7.786 6.27c2.092.615 4.857.954 7.786.954 1.714 0 3.373-.116 4.871-.335-.49.345-.954.734-1.387 1.163a10.858 10.858 0 0 0-1.653 2.091c-.272.442-.51.905-.715 1.387-.185.425-.34.864-.464 1.306-.215.004-.433.007-.652.007-5.381 0-9.825-1.174-10.514-2.7A1.013 1.013 0 0 1 0 15.955v-4.781c.081.063.165.127.255.19.625.435 1.488.814 2.567 1.13zm0 6.619c2.092.616 4.857.955 7.786.955.141 0 .283-.004.42-.004-.117.639-.174 1.29-.174 1.952 0 1.267.215 2.503.641 3.68-.292.007-.588.01-.887.01C4.75 25.706 0 24.313 0 22.594v-4.8c.081.063.165.126.255.189.625.436 1.488.815 2.567 1.13z" class="cls-1"/></svg>

<svg xmlns="http://www.w3.org/2000/svg" xmlns:xlink="http://www.w3.org/1999/xlink" preserveAspectRatio="xMidYMid" width="32" height="32" viewBox="0 0 32 32">
  <defs>
    <style>
      .cls-1 {
        fill: #fff;
        fill-rule: evenodd;
      }
    </style>
  </defs>
  <path d="M21.909,32.000 C17.636,32.000 13.981,29.367 12.510,25.653 C12.063,24.526 11.818,23.299 11.818,22.013 C11.818,21.338 11.885,20.676 12.016,20.038 C12.049,19.872 12.086,19.702 12.130,19.536 C12.174,19.366 12.221,19.197 12.274,19.030 C12.577,18.073 13.024,17.175 13.585,16.367 C15.281,13.920 18.049,12.261 21.217,12.049 C21.385,12.039 21.553,12.032 21.721,12.029 C21.781,12.025 21.845,12.025 21.909,12.025 C22.016,12.025 22.120,12.029 22.224,12.032 C27.653,12.198 32.003,16.603 32.000,22.013 C32.000,27.528 27.482,32.000 21.909,32.000 ZM25.567,23.183 C25.416,22.804 25.201,22.475 24.922,22.199 C24.646,21.926 24.284,21.690 23.850,21.501 C23.440,21.321 22.970,21.228 22.517,21.138 C22.067,21.048 21.610,20.955 21.207,20.782 C20.911,20.656 20.649,20.483 20.441,20.237 C20.206,19.955 20.088,19.599 20.088,19.180 C20.088,18.884 20.155,18.618 20.290,18.379 C20.350,18.272 20.421,18.173 20.508,18.076 C20.693,17.873 20.935,17.717 21.210,17.611 C21.307,17.574 21.408,17.544 21.512,17.521 C21.670,17.488 21.835,17.468 22.003,17.468 C22.557,17.468 23.058,17.671 23.377,18.023 C23.518,18.179 23.632,18.382 23.716,18.628 C23.817,18.927 24.126,19.113 24.445,19.067 L24.798,19.014 C25.211,18.954 25.469,18.532 25.328,18.143 C25.137,17.611 24.828,17.169 24.401,16.819 C23.998,16.490 23.464,16.258 22.863,16.141 L22.863,15.593 C22.863,15.237 22.574,14.944 22.214,14.934 C22.208,14.934 22.201,14.934 22.194,14.934 L21.831,14.934 C21.791,14.934 21.751,14.938 21.710,14.944 C21.479,14.988 21.287,15.147 21.207,15.363 C21.180,15.433 21.163,15.513 21.163,15.593 L21.163,16.131 C20.877,16.184 20.605,16.261 20.357,16.364 C20.038,16.494 19.755,16.663 19.520,16.866 C19.161,17.178 18.889,17.544 18.711,17.956 C18.630,18.143 18.570,18.339 18.526,18.545 C18.492,18.718 18.469,18.897 18.459,19.087 C18.459,19.150 18.455,19.213 18.455,19.280 C18.455,19.838 18.580,20.344 18.822,20.782 C19.067,21.225 19.420,21.577 19.873,21.826 C20.313,22.069 20.753,22.229 21.210,22.358 C21.485,22.435 21.764,22.498 22.057,22.565 C22.685,22.704 23.380,22.917 23.787,23.409 C24.008,23.678 24.119,24.044 24.119,24.493 C24.119,25.025 23.958,25.477 23.639,25.836 C23.340,26.175 22.906,26.401 22.423,26.474 C22.308,26.491 22.194,26.501 22.080,26.501 C21.405,26.501 20.773,26.212 20.390,25.726 C20.219,25.510 20.081,25.204 19.981,24.809 C19.913,24.546 19.695,24.360 19.436,24.320 C19.369,24.307 19.295,24.307 19.221,24.320 L18.862,24.383 C18.657,24.420 18.489,24.543 18.395,24.709 C18.318,24.842 18.287,25.005 18.324,25.168 C18.418,25.600 18.573,25.986 18.788,26.318 C19.110,26.817 19.497,27.186 19.940,27.412 C20.316,27.601 20.736,27.741 21.173,27.824 L21.173,28.240 C21.173,28.605 21.472,28.901 21.842,28.901 L22.204,28.901 C22.574,28.901 22.873,28.605 22.873,28.240 L22.873,27.841 C23.666,27.701 24.358,27.352 24.865,26.823 C25.483,26.178 25.795,25.367 25.792,24.406 C25.792,23.971 25.715,23.559 25.567,23.183 ZM10.608,12.451 C5.203,12.451 0.742,11.264 0.084,9.731 C0.030,9.605 -0.000,9.472 -0.000,9.339 L-0.000,9.233 L-0.000,8.734 L-0.000,4.947 C0.081,5.010 0.165,5.073 0.255,5.137 C0.880,5.572 1.743,5.951 2.822,6.267 C4.914,6.882 7.679,7.221 10.608,7.221 C13.538,7.221 16.302,6.882 18.395,6.267 C19.473,5.948 20.337,5.569 20.961,5.137 C21.052,5.077 21.136,5.014 21.217,4.947 L21.217,8.734 L21.217,9.233 L21.217,9.339 C21.217,9.472 21.186,9.602 21.133,9.731 C20.474,11.264 16.013,12.451 10.608,12.451 ZM10.608,6.224 C4.750,6.224 -0.000,4.831 -0.000,3.112 C-0.000,2.942 0.047,2.776 0.138,2.613 C0.232,2.440 0.373,2.274 0.558,2.114 C1.972,0.884 5.939,-0.000 10.608,-0.000 C15.278,-0.000 19.241,0.884 20.659,2.114 C20.844,2.274 20.985,2.440 21.079,2.613 C21.170,2.776 21.217,2.942 21.217,3.112 C21.217,4.831 16.467,6.224 10.608,6.224 ZM2.822,12.494 C4.914,13.109 7.679,13.448 10.608,13.448 C12.322,13.448 13.981,13.332 15.479,13.113 C14.989,13.458 14.525,13.847 14.092,14.276 C13.450,14.911 12.896,15.613 12.439,16.367 C12.167,16.809 11.929,17.272 11.724,17.754 C11.539,18.179 11.384,18.618 11.260,19.060 C11.045,19.064 10.827,19.067 10.608,19.067 C5.227,19.067 0.783,17.893 0.094,16.367 C0.034,16.231 -0.000,16.095 -0.000,15.955 L-0.000,11.174 C0.081,11.237 0.165,11.301 0.255,11.364 C0.880,11.799 1.743,12.178 2.822,12.494 ZM2.822,19.113 C4.914,19.729 7.679,20.068 10.608,20.068 C10.749,20.068 10.891,20.064 11.028,20.064 C10.911,20.703 10.854,21.354 10.854,22.016 C10.854,23.283 11.069,24.519 11.495,25.696 C11.203,25.703 10.907,25.706 10.608,25.706 C4.750,25.706 -0.000,24.313 -0.000,22.594 L-0.000,17.794 C0.081,17.857 0.165,17.920 0.255,17.983 C0.880,18.419 1.743,18.798 2.822,19.113 Z" class="cls-1"/>
</svg>
